src/assets/Imgs/profile/mirror.svg

<svg fill="none" height="32" viewBox="0 0 32 32" width="32" xmlns="http://www.w3.org/2000/svg"><rect fill="#fff" height="32" rx="8" width="32"/><path d="m10.6625 12.275c0-.175-.0875-.35-.175-.4375l-1.3125-1.575v-.2625h4.025l3.15 6.9125 2.8-6.9125h3.85v.2625l-1.1375 1.05c-.0875.0875-.175.175-.0875.35v7.875c0 .0875 0 .2625.0875.35l1.05 1.05v.2625h-5.5125v-.2625l1.1375-1.1375c.0875-.0875.0875-.175.0875-.35v-6.3875l-3.15 7.9625h-.35l-3.675-7.9625v5.3375c0 .2625.0875.4375.175.6125l1.4875 1.75v.2625h-4.1125v-.2625l1.4875-1.75c.175-.175.2625-.35.175-.6125z" fill="#000"/></svg>

<svg width="32" height="32" viewBox="0 0 32 32" fill="none" xmlns="http://www.w3.org/2000/svg">
<g id="Dis">
<rect id="Rectangle 2058" width="32" height="32" rx="8" fill="white"/>
<path id="medium" d="M10.6625 12.275C10.6625 12.1 10.575 11.925 10.4875 11.8375L9.175 10.2625V10H13.2L16.35 16.9125L19.15 10H23V10.2625L21.8625 11.3125C21.775 11.4 21.6875 11.4875 21.775 11.6625V19.5375C21.775 19.625 21.775 19.8 21.8625 19.8875L22.9125 20.9375V21.2H17.4V20.9375L18.5375 19.8C18.625 19.7125 18.625 19.625 18.625 19.45V13.0625L15.475 21.025H15.125L11.45 13.0625V18.4C11.45 18.6625 11.5375 18.8375 11.625 19.0125L13.1125 20.7625V21.025H9V20.7625L10.4875 19.0125C10.6625 18.8375 10.75 18.6625 10.6625 18.4V12.275Z" fill="black"/>
</g>
</svg>
